X:1
T:Walegg-Juiz 2007  Bb  ABAC
T:Guido Waser
T:Dirigenten-Notiz: Edi Gasser
C:Unterwalden (CH)
%%partsbox
P:ABAC
R:Naturjodel
M:3/4
L:1/8
K:Bb
[P:A] |: DE|FED2B2 | F3E DE | FED2B2 | A4FF | f3e Af | 
e2c2F2 | e3cA2 | B4DE | FED2B2 | F3E DE | FED2B2 | 
A4FF | f3e Af | e2c2F2 | e3cA2 | B3z :|
M:none
[P:B] e2|e3Gc2 | e2Ge dc |  d2dF Bd |  F3d cB | c3F Ac | 
F2Fe dc |  d2dF Bd | F4e2 | e3Gc2 |e2Ge dc | d2dF Bd | 
F3d cB | c3F Ac | F2Fe dc | (B6 | B2)z2 ||
M:none
[P:C]  DE |:F4DE | F2G3D | F3Ed2 | c4CD | E4F2 | 
d2c3d | B3cd2 | F4DE | F4DE | F2G3D | F3Ed2 | c4CD | 
E4F2 | d2c3d |1 (B6 | B2)zDE :|2 (B6 | B2)z2 |]
W:
W:Reihenfolge: A - B - A - C
W:notiert Edi Gasser %Angaben: 
W:UJV-Naturjodelsammlung: Code-Nr: 62-01
W:http://www.naturjodler.ch/code 62.htm  (with AUDIO)
%October 04, 2018

